X: 33279
T: Purple Sunrise, The
R: hornpipe
M: 4/4
K: Dmajor
D>FA>d B>G (3Bcd|c>Ac>f d2 e>f|a2 (3fga g>fe>g|f>e (3def e2 (3GFE|
D2 F>d B2 G>d|c>Ac>f d>F (3def|(3gab a>g f>A (3gfe|(3ded c>e d2:|
a>fd>a g>ec>A|f>e (3def c>A (3gfe|d2 (3edc B2 (3cBA|G>BA>^G A>E (3GFE|
D2 (3FAd B2 (3GBd|c2 (3Acf d>F (3def|a2 (3bag f>gf>e|d>FA>c d2:|

